X: 10240
T: Do You Want Any More?
R: jig
M: 6/8
K: Gmajor
|:DFA A2B|cAd cAG|Adc d2e|g/f/ed cAG|
FDF A2B|cAd cAG|Adc AGE|1 FDD D3:|2 FDD D2g||
|:fdg fdc|Add cde|fdg fdc|ABc d2e|
afa g3|f/g/af edc|Adc AGE|1 FDD D2g:|2 FDD D3||

